!!!SOCIAL_FUNCTION:	songs connected with girls' adolescence ceremony
!!!PDT:	1958
!!!OTL: No_45_Closing_Song_of_the_Adolescence_Ceremony.krn
!!!REG: Northern California
!!!LANG: Non-Tone
!!!LING_GROUP: Penutian
**kern
*staff1
=1-
*clefF4
*k[b-e-a-]
*M2/4
4F\
8.B-\L
16G\Jk
=2
(4.F\
8E-\)
=3
8E-\L
16F\Jk
16r
8E-\L
8E-\J
=4
4.E-\
8r
=5!|:
4E-\
8.B-\L
16G\Jk
=6
4.F\
8E-\
=7
8E-\L
16F\Jk
16r
8E-\L
8E-\J
=8
4.E-\
8r
=9
4E-\
8.B-\L
16G\Jk
=10
4.F\
8E-\
=11
8E-\L
16F\Jk
16r
8E-\L
8E-\J
=12
4.E-\
8r
=13
4B-\
8B-\L
8B-\J
=14
4..B-\
16G\
=15
4F\
8.B-\L
16G\Jk
=16
4..F\
16E-\
=17
(8E-\L
16F\Jk)
16r
8E-\L
8E-\J
=18
4E-\
4r
==:|!
*-
